X:1155
T: Nem vagyok én szép, csak a szemem fekete.
Q:1/4=84
M:4/4
L:1/4
K:F
d G g/g/ f | d/d/c/B/ | A<G G z |
d d g g | a/a/g/f/ | e<d d z |
d d g g | a/a/g/f/ | e<d c z |
d G g/g/f/f/ | d/d/c/B/ | A<G G z |

